src/assets/images/telegram.svg

<svg width="21" height="18" viewBox="0 0 21 18" fill="none" xmlns="http://www.w3.org/2000/svg">
<path d="M19.6767 0.318074C19.5179 0.17273 19.3232 0.0722857 19.1128 0.02706C18.9023 -0.0181657 18.6835 -0.00654282 18.479 0.0607348L0.832236 5.87786C0.351308 6.03638 0.0251745 6.46568 0.00138087 6.97146C-0.0223735 7.47728 0.262013 7.93532 0.72589 8.13833L5.09008 10.0478L6.4068 16.1547C6.46148 16.4084 6.59025 16.6344 6.86303 16.7039C7.13895 16.7742 7.33389 16.6234 7.53976 16.4693L10.7784 14.0442L14.5645 17.1425C14.785 17.323 15.0546 17.4172 15.3294 17.4172C15.4626 17.417 15.5948 17.3951 15.7208 17.3522C16.1193 17.2171 16.4147 16.8919 16.511 16.4823L20.0376 1.4887C20.0868 1.27911 20.0793 1.06021 20.0158 0.854477C19.9524 0.648747 19.8354 0.463607 19.6767 0.318074ZM7.82187 11.1419C7.81972 11.147 7.8176 11.1528 7.8156 11.1597L7.08556 13.7103L6.27086 9.93171L11.873 6.81914L7.95625 10.9145C7.89482 10.9792 7.84888 11.0569 7.82187 11.1419ZM8.05358 14.612L8.38516 13.4535L8.70232 12.3454L9.83872 13.2753L8.05358 14.612ZM18.8902 1.21878L15.3637 16.2124C15.3619 16.2198 15.3595 16.2301 15.3423 16.2359C15.3252 16.2417 15.3169 16.2351 15.311 16.2302L11.1681 12.84L11.1678 12.8397L9.24824 11.269L15.4151 4.82087C15.5126 4.71895 15.5702 4.58547 15.5777 4.44465C15.5851 4.30384 15.5418 4.16502 15.4557 4.0534C15.3695 3.94176 15.2461 3.86473 15.108 3.83628C14.9699 3.80783 14.8262 3.82986 14.7029 3.89837L5.57152 8.97181L1.19839 7.05841C1.18506 7.05261 1.17773 7.04935 1.17879 7.02681C1.17985 7.00435 1.18745 7.0018 1.20125 6.99726L18.848 1.18017C18.8566 1.17739 18.8662 1.17417 18.8804 1.18711C18.8946 1.20012 18.8923 1.21 18.8902 1.21878Z" fill="#039BE5"/>
</svg>

<svg width="21" height="18" fill="none" xmlns="http://www.w3.org/2000/svg"><path d="M19.677.318a1.213 1.213 0 0 0-1.198-.257L.832 5.878c-.48.158-.807.588-.83 1.093-.024.506.26.964.724 1.167l4.364 1.91 1.317 6.107c.054.253.183.48.456.549.276.07.47-.08.677-.235l3.238-2.425 3.787 3.098a1.205 1.205 0 0 0 1.156.21c.398-.135.694-.46.79-.87L20.038 1.49a1.212 1.212 0 0 0-.361-1.17zM7.822 11.142a.16.16 0 0 0-.006.018l-.73 2.55-.815-3.778 5.602-3.113-3.917 4.096a.59.59 0 0 0-.134.227zm.232 3.47.331-1.159.317-1.108 1.137.93-1.785 1.337zM18.89 1.219l-3.526 14.993c-.002.008-.005.018-.022.024-.017.006-.025 0-.031-.006l-4.143-3.39-1.92-1.571 6.167-6.448a.59.59 0 0 0-.712-.923L5.572 8.972 1.198 7.058c-.013-.005-.02-.009-.02-.031.002-.023.01-.025.023-.03L18.848 1.18c.009-.003.018-.006.032.007.015.013.012.023.01.032z" fill="#039BE5"/></svg>
